static/img/kroki/ee6b98389fccb12fe5095dffd77f0252.svg

<?xml version="1.0" encoding="us-ascii" standalone="no"?><svg xmlns="http://www.w3.org/2000/svg" xmlns:xlink="http://www.w3.org/1999/xlink" contentStyleType="text/css" height="252px" preserveAspectRatio="none" style="width:437px;height:252px;" version="1.1" viewBox="0 0 437 252" width="437px" zoomAndPan="magnify"><defs/><g><!--class aws_cloudfront_distribution--><g id="elem_aws_cloudfront_distribution"><rect codeLine="22" fill="#3D176E" height="39.7891" id="aws_cloudfront_distribution" rx="2.5" ry="2.5" style="stroke:#000D19;stroke-width:0.5;" width="274" x="81.5" y="7"/><ellipse cx="96.5" cy="26.8945" fill="#ADD1B2" rx="11" ry="11" style="stroke:#181818;stroke-width:1.0;"/><path d="M99.4688,32.5352 Q98.8906,32.832 98.25,32.9727 Q97.6094,33.1289 96.9063,33.1289 Q94.4063,33.1289 93.0781,31.4883 Q91.7656,29.832 91.7656,26.707 Q91.7656,23.582 93.0781,21.9258 Q94.4063,20.2695 96.9063,20.2695 Q97.6094,20.2695 98.25,20.4258 Q98.9063,20.582 99.4688,20.8789 L99.4688,23.5977 Q98.8438,23.0195 98.25,22.7539 Q97.6563,22.4727 97.0313,22.4727 Q95.6875,22.4727 95,23.5508 Q94.3125,24.6133 94.3125,26.707 Q94.3125,28.8008 95,29.8789 Q95.6875,30.9414 97.0313,30.9414 Q97.6563,30.9414 98.25,30.6758 Q98.8438,30.3945 99.4688,29.8164 L99.4688,32.5352 Z " fill="#000000"/><text fill="#D9B8FF" font-family="Helvetica" font-size="17" lengthAdjust="spacing" textLength="232" x="115.5" y="32.7798">aws_cloudfront_distribution</text></g><!--class aws_cloudfront_field_level_encryption_config--><g id="elem_aws_cloudfront_field_level_encryption_config"><rect codeLine="24" fill="#3D176E" height="39.7891" id="aws_cloudfront_field_level_encryption_config" rx="2.5" ry="2.5" style="stroke:#000D19;stroke-width:0.5;" width="420" x="8.5" y="106.79"/><ellipse cx="23.5" cy="126.6845" fill="#ADD1B2" rx="11" ry="11" style="stroke:#181818;stroke-width:1.0;"/><path d="M26.4688,132.3252 Q25.8906,132.622 25.25,132.7627 Q24.6094,132.9189 23.9063,132.9189 Q21.4063,132.9189 20.0781,131.2783 Q18.7656,129.622 18.7656,126.497 Q18.7656,123.372 20.0781,121.7158 Q21.4063,120.0595 23.9063,120.0595 Q24.6094,120.0595 25.25,120.2158 Q25.9063,120.372 26.4688,120.6689 L26.4688,123.3877 Q25.8438,122.8095 25.25,122.5439 Q24.6563,122.2627 24.0313,122.2627 Q22.6875,122.2627 22,123.3408 Q21.3125,124.4033 21.3125,126.497 Q21.3125,128.5908 22,129.6689 Q22.6875,130.7314 24.0313,130.7314 Q24.6563,130.7314 25.25,130.4658 Q25.8438,130.1845 26.4688,129.6064 L26.4688,132.3252 Z " fill="#000000"/><text fill="#D9B8FF" font-family="Helvetica" font-size="17" lengthAdjust="spacing" textLength="378" x="42.5" y="132.5698">aws_cloudfront_field_level_encryption_config</text></g><!--class aws_cloudfront_field_level_encryption_profile--><g id="elem_aws_cloudfront_field_level_encryption_profile"><rect codeLine="26" fill="#3D176E" height="39.7891" id="aws_cloudfront_field_level_encryption_profile" rx="2.5" ry="2.5" style="stroke:#000D19;stroke-width:0.5;" width="423" x="7" y="206.58"/><ellipse cx="22" cy="226.4745" fill="#ADD1B2" rx="11" ry="11" style="stroke:#181818;stroke-width:1.0;"/><path d="M24.9688,232.1152 Q24.3906,232.412 23.75,232.5527 Q23.1094,232.7089 22.4063,232.7089 Q19.9063,232.7089 18.5781,231.0683 Q17.2656,229.412 17.2656,226.287 Q17.2656,223.162 18.5781,221.5058 Q19.9063,219.8495 22.4063,219.8495 Q23.1094,219.8495 23.75,220.0058 Q24.4063,220.162 24.9688,220.4589 L24.9688,223.1777 Q24.3438,222.5995 23.75,222.3339 Q23.1563,222.0527 22.5313,222.0527 Q21.1875,222.0527 20.5,223.1308 Q19.8125,224.1933 19.8125,226.287 Q19.8125,228.3808 20.5,229.4589 Q21.1875,230.5214 22.5313,230.5214 Q23.1563,230.5214 23.75,230.2558 Q24.3438,229.9745 24.9688,229.3964 L24.9688,232.1152 Z " fill="#000000"/><text fill="#D9B8FF" font-family="Helvetica" font-size="17" lengthAdjust="spacing" textLength="381" x="41" y="232.3598">aws_cloudfront_field_level_encryption_profile</text></g><!--link aws_cloudfront_distribution to aws_cloudfront_field_level_encryption_config--><g id="link_aws_cloudfront_distribution_aws_cloudfront_field_level_encryption_config"><path codeLine="28" d="M218.5,47.22 C218.5,64.36 218.5,83.27 218.5,100.41 " fill="none" id="aws_cloudfront_distribution-to-aws_cloudfront_field_level_encryption_config" style="stroke:#1A83AF;stroke-width:2.0;"/><polygon fill="#1A83AF" points="218.5,106.41,222.5,97.41,218.5,101.41,214.5,97.41,218.5,106.41" style="stroke:#1A83AF;stroke-width:2.0;"/></g><!--link aws_cloudfront_field_level_encryption_config to aws_cloudfront_field_level_encryption_profile--><g id="link_aws_cloudfront_field_level_encryption_config_aws_cloudfront_field_level_encryption_profile"><path codeLine="29" d="M218.5,147.01 C218.5,164.15 218.5,183.06 218.5,200.2 " fill="none" id="aws_cloudfront_field_level_encryption_config-to-aws_cloudfront_field_level_encryption_profile" style="stroke:#1A83AF;stroke-width:2.0;"/><polygon fill="#1A83AF" points="218.5,206.2,222.5,197.2,218.5,201.2,214.5,197.2,218.5,206.2" style="stroke:#1A83AF;stroke-width:2.0;"/></g><!--SRC=[dP9DQm8n48Rl_eg0Py7jqggNmbQGzYAbzbRA4ZCJ3MOpooGgjlI_rrLRqbq_iDVCCpFFEsHk00KMPTY80eific_vXN6bP5c8Z9dMGxB4egsrr6clNXoH2nU1iInGFA9TOJ1AredNkL4BXzwBcwZq8DLYnhHqi1yVM3g_BQ4B4JMqqlii13RJPS181WRJljPriZwqdKBIkyC6HWp81wJRxK8og2CNLvtD_KjCp0UA93xQc08sD1ihTjHPoug891j1V-ed7PybW74pSHkzlUoTs27_UP_C9T2wehMqFbxZ0p9Is9GuRAJ2GHzqxoZyT0fMrUM4NFjSMLg2vcs478pV_m13JdoslevJsg25tE8AROvEyQQi-5oHqsPsTLl9f8t5NTyvdSvREydwQJPwxznVPTIwIlyVQmu9lW40]--></g></svg>

<svg xmlns="http://www.w3.org/2000/svg" width="437" height="252" viewBox="0 0 437 252"><rect width="274" height="39.789" x="81.5" y="7" fill="#3D176E" rx="2.5" ry="2.5" style="stroke:#000d19;stroke-width:.5"/><circle cx="96.5" cy="26.895" r="11" fill="#ADD1B2" style="stroke:#181818;stroke-width:1"/><path d="M99.469 32.535q-.578.297-1.219.438-.64.156-1.344.156-2.5 0-3.828-1.64-1.312-1.657-1.312-4.782t1.312-4.781q1.328-1.656 3.828-1.656.703 0 1.344.156.656.156 1.219.453v2.719q-.625-.578-1.219-.844-.594-.281-1.219-.281-1.344 0-2.031 1.078-.687 1.062-.687 3.156T95 29.879q.688 1.062 2.031 1.062.625 0 1.219-.265.594-.281 1.219-.86z"/><text x="115.5" y="32.78" fill="#D9B8FF" font-family="Helvetica" font-size="17" textLength="232">aws_cloudfront_distribution</text><rect width="420" height="39.789" x="8.5" y="106.79" fill="#3D176E" rx="2.5" ry="2.5" style="stroke:#000d19;stroke-width:.5"/><circle cx="23.5" cy="126.684" r="11" fill="#ADD1B2" style="stroke:#181818;stroke-width:1"/><path d="M26.469 132.325q-.578.297-1.219.438-.64.156-1.344.156-2.5 0-3.828-1.64-1.312-1.657-1.312-4.782t1.312-4.781q1.328-1.656 3.828-1.656.703 0 1.344.156.656.156 1.219.453v2.719q-.625-.579-1.219-.844-.594-.281-1.219-.281-1.343 0-2.031 1.078-.687 1.062-.687 3.156t.687 3.172q.688 1.062 2.031 1.062.625 0 1.219-.265.594-.281 1.219-.86z"/><text x="42.5" y="132.57" fill="#D9B8FF" font-family="Helvetica" font-size="17" textLength="378">aws_cloudfront_field_level_encryption_config</text><rect width="423" height="39.789" x="7" y="206.58" fill="#3D176E" rx="2.5" ry="2.5" style="stroke:#000d19;stroke-width:.5"/><circle cx="22" cy="226.475" r="11" fill="#ADD1B2" style="stroke:#181818;stroke-width:1"/><path d="M24.969 232.115q-.578.297-1.219.438-.64.156-1.344.156-2.5 0-3.828-1.64-1.312-1.657-1.312-4.782t1.312-4.781q1.328-1.656 3.828-1.656.703 0 1.344.156.656.156 1.219.453v2.719q-.625-.578-1.219-.844-.594-.281-1.219-.281-1.343 0-2.031 1.078-.687 1.062-.687 3.156t.687 3.172q.688 1.062 2.031 1.062.625 0 1.219-.265.594-.281 1.219-.86z"/><text x="41" y="232.36" fill="#D9B8FF" font-family="Helvetica" font-size="17" textLength="381">aws_cloudfront_field_level_encryption_profile</text><path fill="none" d="M218.5 47.22v53.19" style="stroke:#1a83af;stroke-width:2"/><path fill="#1A83AF" d="m218.5 106.41 4-9-4 4-4-4z" style="stroke:#1a83af;stroke-width:2"/><path fill="none" d="M218.5 147.01v53.19" style="stroke:#1a83af;stroke-width:2"/><path fill="#1A83AF" d="m218.5 206.2 4-9-4 4-4-4z" style="stroke:#1a83af;stroke-width:2"/></svg>
